assets/Wheel/Flat/wheel_flat.svg

<svg width="32" height="32" viewBox="0 0 32 32" fill="none" xmlns="http://www.w3.org/2000/svg">
<path d="M4.89138 11.3024L14.4322 14.7761L8.60967 6.45894C8.41734 6.18648 8.48466 5.80823 8.75712 5.6159C9.02959 5.42357 9.40784 5.49088 9.60017 5.76335L15.4246 14.082V3.92664C15.4246 3.59327 15.6971 3.3208 16.0305 3.3208C16.3638 3.3208 16.6363 3.59327 16.6363 3.92664V14.3388L23.3293 6.36276C23.5441 6.10632 23.9256 6.07427 24.182 6.28903C24.4384 6.5038 24.4705 6.88526 24.2557 7.1417L17.7289 14.9196L27.5349 12.2895C27.8587 12.203 28.1888 12.3953 28.2754 12.7191C28.3619 13.0428 28.1696 13.373 27.8458 13.4595L18.0359 16.0871L27.5831 19.5631C27.8972 19.6785 28.0607 20.0247 27.9453 20.3388C27.8555 20.5824 27.6247 20.7363 27.3747 20.7363C27.3074 20.7363 27.2369 20.7235 27.1663 20.701L17.6275 17.2271L23.4511 25.5446C23.6434 25.817 23.5761 26.1953 23.3037 26.3876C23.1979 26.4613 23.0761 26.4966 22.9543 26.4966C22.7619 26.4966 22.576 26.4069 22.4574 26.237L16.6363 17.9219V28.0736C16.6363 28.4101 16.3638 28.6794 16.0305 28.6794C15.6971 28.6794 15.4246 28.4069 15.4246 28.0736V17.6679L8.7315 25.6406C8.6129 25.7817 8.44301 25.8554 8.26991 25.8554C8.13208 25.8554 7.99424 25.8073 7.88205 25.7143C7.62561 25.4996 7.59355 25.1181 7.80832 24.8617L14.334 17.085L4.52268 19.7103C4.47139 19.7263 4.4201 19.7327 4.36561 19.7327C4.09955 19.7327 3.85273 19.5532 3.78221 19.2839C3.69566 18.9602 3.88799 18.63 4.21174 18.5435L14.0213 15.916L4.47787 12.4404C4.16373 12.325 4.00025 11.9788 4.11565 11.6646C4.23105 11.3505 4.57724 11.187 4.89138 11.3024Z" fill="#F3AD61"/>
<path d="M16.0016 2C8.26995 2 2 8.26995 2 16.0016C2 23.7333 8.26995 30.0032 16.0016 30.0032C23.7333 30.0032 30 23.7333 30 16.0016C30 8.26995 23.7333 2 16.0016 2ZM16.0016 26.7532C9.77974 26.7532 5.23315 22.2203 5.23315 15.9984C5.23315 9.77653 9.77974 5.21953 16.0016 5.21953C22.2235 5.21953 26.7668 9.77653 26.7668 15.9984C26.7636 22.2235 22.2235 26.7532 16.0016 26.7532Z" fill="#A56953"/>
<path d="M16.0016 5.73745C17.3864 5.73745 18.7327 6.00992 19.9956 6.54203C21.2169 7.05811 22.3164 7.79858 23.2588 8.741C24.2012 9.68342 24.9417 10.7829 25.4578 12.0042C25.9931 13.2704 26.2624 14.6135 26.2624 15.9982C26.2624 17.383 25.9899 18.7293 25.4578 19.9923C24.9417 21.2136 24.2012 22.3131 23.2588 23.2555C22.3164 24.1979 21.2169 24.9384 19.9956 25.4545C18.7295 25.9898 17.3864 26.259 16.0016 26.259C14.6168 26.259 13.2705 25.9866 12.0075 25.4545C10.7862 24.9384 9.68675 24.1979 8.74433 23.2555C7.80191 22.3131 7.06144 21.2136 6.54536 19.9923C6.01004 18.7261 5.74078 17.383 5.74078 15.9982C5.74078 14.6135 6.01325 13.2672 6.54536 12.0042C7.06144 10.7829 7.80191 9.68342 8.74433 8.741C9.68675 7.79858 10.7862 7.05811 12.0075 6.54203C13.2705 6.00992 14.6136 5.73745 16.0016 5.73745ZM16.0016 4.73413C9.77971 4.73413 4.73425 9.77958 4.73425 16.0014C4.73425 22.2233 9.77971 27.2688 16.0016 27.2688C22.2234 27.2688 27.2689 22.2233 27.2689 16.0014C27.2657 9.77958 22.2234 4.73413 16.0016 4.73413Z" fill="#6D4534"/>
<path d="M16.0016 19.377C17.8658 19.377 19.377 17.8658 19.377 16.0016C19.377 14.1374 17.8658 12.6262 16.0016 12.6262C14.1374 12.6262 12.6262 14.1374 12.6262 16.0016C12.6262 17.8658 14.1374 19.377 16.0016 19.377Z" fill="#A56953"/>
<path d="M16.0016 17.5755C16.8709 17.5755 17.5756 16.8709 17.5756 16.0016C17.5756 15.1324 16.8709 14.4277 16.0016 14.4277C15.1324 14.4277 14.4277 15.1324 14.4277 16.0016C14.4277 16.8709 15.1324 17.5755 16.0016 17.5755Z" fill="#F3C07B"/>
</svg>

<svg xmlns="http://www.w3.org/2000/svg" width="32" height="32" fill="none"><path fill="#F3AD61" d="m4.891 11.302 9.541 3.474L8.61 6.46a.606.606 0 0 1 .99-.696l5.825 8.319V3.927c0-.334.272-.606.605-.606.334 0 .606.272.606.606v10.412l6.693-7.976a.605.605 0 1 1 .927.779l-6.527 7.778 9.806-2.63a.604.604 0 1 1 .31 1.17l-9.81 2.627 9.548 3.476a.605.605 0 1 1-.417 1.138l-9.538-3.474 5.823 8.318a.606.606 0 1 1-.994.692l-5.82-8.315v10.152a.605.605 0 1 1-1.212 0V17.668L8.73 25.64a.6.6 0 0 1-.849.073.605.605 0 0 1-.074-.852l6.526-7.777-9.811 2.625a.605.605 0 1 1-.31-1.167l9.808-2.627-9.543-3.476a.605.605 0 1 1 .413-1.138Z"/><path fill="#A56953" d="M16.002 2C8.27 2 2 8.27 2 16.002c0 7.731 6.27 14.001 14.002 14.001 7.731 0 13.998-6.27 13.998-14.001C30 8.27 23.733 2 16.002 2Zm0 24.753c-6.222 0-10.769-4.533-10.769-10.755C5.233 9.777 9.78 5.22 16.002 5.22s10.765 4.557 10.765 10.778c-.003 6.226-4.543 10.755-10.765 10.755Z"/><path fill="#6D4534" d="M16.002 5.737a10.242 10.242 0 0 1 9.456 6.267c.535 1.266.804 2.61.804 3.994a10.228 10.228 0 0 1-3.004 7.257 10.228 10.228 0 0 1-7.256 3.004 10.228 10.228 0 0 1-7.257-3.003 10.227 10.227 0 0 1-3.004-7.258 10.228 10.228 0 0 1 3.004-7.257 10.227 10.227 0 0 1 7.257-3.004Zm0-1.003C9.78 4.734 4.734 9.78 4.734 16.001c0 6.222 5.046 11.268 11.268 11.268 6.221 0 11.267-5.046 11.267-11.268-.003-6.221-5.046-11.267-11.267-11.267Z"/><path fill="#A56953" d="M16.002 19.377a3.375 3.375 0 1 0 0-6.75 3.375 3.375 0 0 0 0 6.75Z"/><path fill="#F3C07B" d="M16.002 17.576a1.574 1.574 0 1 0 0-3.148 1.574 1.574 0 0 0 0 3.148Z"/></svg>
